svg/material-icons/vaping_rooms/materialiconsoutlined/20px.svg

<svg xmlns="http://www.w3.org/2000/svg" width="20" height="20" viewBox="0 0 20 20"><path d="M18 15H7v-2h11v2zm-4.5-7h-1c-.83 0-1.5-.67-1.5-1.5S11.67 5 12.5 5h.5V4h-.5a2.5 2.5 0 0 0 0 5h1c.83 0 1.5.67 1.5 1.5V12h1v-1.5A2.5 2.5 0 0 0 13.5 8zM9 13.65c-.19 0-.35.16-.35.35s.16.35.35.35.35-.16.35-.35-.16-.35-.35-.35zM6 13c-.98.16-2 .25-3 .25H2v1.5h1c1 0 2.02.09 3 .25v-2zm12-1v-1.5c0-1.88-1.16-3.5-2.8-4.17.49-.45.8-1.11.8-1.83A2.5 2.5 0 0 0 13.5 2v1c.83 0 1.5.67 1.5 1.5S14.33 6 13.5 6v1c1.93 0 3.5 1.57 3.5 3.5V12h1z"/></svg>

<svg xmlns="http://www.w3.org/2000/svg" enable-background="new 0 0 20 20" height="20" viewBox="0 0 20 20" width="20"><g><rect fill="none" height="20" width="20" x="0"/></g><g><path d="M18,15H7v-2h11V15z M13.5,8h-1C11.67,8,11,7.33,11,6.5S11.67,5,12.5,5H13V4h-0.5C11.12,4,10,5.12,10,6.5S11.12,9,12.5,9h1 c0.83,0,1.5,0.67,1.5,1.5V12h1v-1.5C16,9.12,14.88,8,13.5,8z M9,13.65c-0.19,0-0.35,0.16-0.35,0.35S8.81,14.35,9,14.35 S9.35,14.19,9.35,14S9.19,13.65,9,13.65z M6,13c-0.98,0.16-2,0.25-3,0.25H2v1.5h1c1,0,2.02,0.09,3,0.25V13z M18,12v-1.5 c0-1.88-1.16-3.5-2.8-4.17C15.69,5.88,16,5.22,16,4.5C16,3.12,14.88,2,13.5,2v1C14.33,3,15,3.67,15,4.5S14.33,6,13.5,6v1 c1.93,0,3.5,1.57,3.5,3.5V12H18z"/></g></svg>
